!!!!SEGMENT: pl-sa--217-a-vi-21--001_pichler-johann-melchior--salve-regina-andante-molto-salve-regina.krn
!!!cenid: 17xx:1772
!!!COM: Pichler, Johann Melchior
!!!COM-rismID: pe41011479
!!!CDT: <1695/02/19-
!!!CNT: German
!!!OPR: Salve Regina
!!!OTL: Andante molto - Salve Regina
!!!OMV: 001
!!!PDT:
!!!AGN: Sacred
!!!SMS-siglum: PL-SA
!!!SMS-shelfmark: 217/A VI 21
!!!SMS-shelfwork: 001-001 M
!!!SMS-variant: Violino Primo.: PL-SA 217/A VI 21:5
!!!SMS-altvar: Violino Primo: PL-SA 217/A VI 21:17
!!!NIFC-rismSourceID: 1001030015
!!!NIFC-islandoraID:
!!!URL-pdf-islandora:
!!!URL-scan: https://bc.bdsandomierz.pl/dlibra/publication/1573/edition/1541/content @EN{Scan in the Sandomierz Diocese Digital Library} @PL{Skany w portalu Cyfrowa Biblioteka Diecezjalna w Sandomierzu}
!!!ONB-nifc: UWAGA: części Salve Regina: 1. Andante molto – Salve Regina, 2. Allegro – Vita dulcedo, 3. Adagio – Ad te clamamus, 4. Allegro – Eja ergo, 5. Adagio – Et Jesum benedictum
!!!AIN: 1 organ 1 soprn 2 violn
!!!key: G
**kern	**fba	**kern	**dynam	**kern	**dynam	**kern	**text
*	*	*group1	*	*group1	*	*	*
*part4	*part4	*part3	*part3	*part2	*part2	*part1	*part1
*staff4	*	*staff3	*	*staff2	*	*staff1	*staff1
*I"Organo.	*	*I"Violino Secondo.	*	*I"Violino Primo.	*	*I"Canto Solo.	*
*I'org	*	*I'vl 2	*	*I'vl 1	*	*I'S	*
*Iorgan	*	*Ivioln	*	*Ivioln	*	*Isoprn	*
*ICklav	*	*ICstr	*	*ICstr	*	*ICvox	*
*IGcont	*	*IGacmp	*	*IGacmp	*	*IGsolo	*
*clefF4	*	*clefG2	*	*clefG2	*	*clefC1	*
*k[f#]	*	*k[f#]	*	*k[f#]	*	*k[f#]	*
*G:	*	*G:	*	*G:	*	*G:	*
*M4/4	*	*M4/4	*	*M4/4	*	*M4/4	*
*met(c)	*	*met(c)	*	*met(c)	*	*met(c)	*
=1	=1	=1	=1	=1	=1	=1	=1
!LO:TX:b:t=Salve.	!	!LO:TX:a:B:t=Andante molto.	!	!LO:TX:b:t=Salve.	!	!	!
!LO:TX:a:B:t=and. molto.	!	!LO:TX:b:t=Salve	!	!LO:TX:a:B:t=Andante molto.	!	!LO:TX:a:B:t=andante molto.	!
8GG/L	.	8b/L	.	4dd\	.	00r	.
8BB/	6	8g/	.	.	.	.	.
8C/	.	8g/	.	(32ee\KLL	.	.	.
.	.	.	.	16.cc\)	.	.	.
8C#X/J	6 5	8e/J	.	(32b\K	.	.	.
.	.	.	.	16.a\JJ)	.	.	.
.	.	.	.	(<8qqg/	.	.	.
8D/L	3	8A/L	.	4f#/)	.	.	.
8Cn/	4	8d/	.	.	.	.	.
8BB/	6	8d/	.	4g/	.	.	.
8GG/J	.	8B/J	.	.	.	.	.
=2	=2	=2	=2	=2	=2	=2	=2
4C/	.	8r	.	8r	.	.	.
.	.	(8cc\L	.	(8ee\L	.	.	.
8D/L	6 4	8b\)	.	8dd\)	.	.	.
8DD/J	7 3	8a\J	.	8cc\J	.	.	.
.	.	(16qqb/	.	(16qqdd/	.	.	.
!LO:TX:t=P:problem=mixed beam	!	!	!	!LO:TX:a:B:t=t.	!	!	!
8GG/L	4	8a/L)	.	8cc\L)	.	.	.
8G\	3	8g/J	.	8b\J	.	.	.
8B\	6	[4dd\	.	8r	.	.	.
8G\J	.	.	.	8dd\	.	.	.
=3	=3	=3	=3	=3	=3	=3	=3
8c\L	9	4dd\]	.	[4ee\	.	.	.
8B\	.	.	.	.	.	.	.
*	*	*2\right	*	*	*	*	*
!	!	!	!	!LO:TUP:a:problem=klamra łukowa	!	!	!
8c\	8	2cc\	.	24ee\LL]	.	.	.
.	.	.	.	24ff#\	.	.	.
.	.	.	.	24gg\JJ	.	.	.
!	!	!	!	!LO:TUP:a:problem=klamra łukowa	!	!	!
8A\J	.	.	.	24aa\LL	.	.	.
.	.	.	.	24bb\	.	.	.
.	.	.	.	24ccc\JJ	.	.	.
8B\L	9	.	.	[4dd\	.	.	.
8A\	.	.	.	.	.	.	.
!	!	!	!	!LO:TUP:a:problem=klamra łukowa	!	!	!
8B\	8	[4b/	.	24dd\LL]	.	.	.
.	.	.	.	24ee\	.	.	.
.	.	.	.	24ff#\JJ	.	.	.
!	!	!	!	!LO:TUP:a:problem=klamra łukowa, kropka zamiast numeru	!	!	!
8G\J	.	.	.	24gg\LL	.	.	.
.	.	.	.	24aa\	.	.	.
.	.	.	.	24bb\JJ	.	.	.
=4	=4	=4	=4	=4	=4	=4	=4
8A\L	9	4b/]	.	[4cc\	.	.	.
8G\	.	.	.	.	.	.	.
!	!	!	!	!LO:TUP:a:problem=klamra łukowa	!	!	!
8F#\	6 5	[4a/	.	24cc\LL]	.	.	.
.	.	.	.	24dd\	.	.	.
.	.	.	.	24ee\JJ	.	.	.
!	!	!	!	!LO:TUP:a:problem=klamra łukowa	!	!	!
8D\J	.	.	.	24ff#\LL	.	.	.
.	.	.	.	24gg\	.	.	.
.	.	.	.	24aa\JJ	.	.	.
!LO:TX:t=P:problem=mixed beam	!	!	!	!	!	!	!
8G\L	.	8a/L]	.	8b\L	.	.	.
8BB/	6	8g/	.	8gg\J	.	.	.
.	.	.	.	(16qqff#/	.	.	.
8C/	.	8g/	.	8ee\L)	.	.	.
.	.	.	.	(16qqdd/	.	.	.
8C/J	6 5	8g/J	.	8cc\J)	.	.	.
=5	=5	=5	=5	=5	=5	=5	=5
!LO:TX:t=P:problem=mixed beam	!	!	!	!	!	!	!
8D\L	4	4g/	.	4b/	.	1r	.
8D\	.	.	.	.	.	.	.
!	!	!LO:TX:a:B:t=t.	!	!LO:TX:a:B:t=t.	!	!	!
8DD/	3	4f#/	.	4a/	.	.	.
8DD/J	.	.	.	.	.	.	.
!LO:TX:t=P:problem=mixed beam	!	!	!	!	!	!	!
8GG/L	.	8g/L	.	8g/L	.	.	.
8G\	.	16d/L	.	16d/L	.	.	.
.	.	16B/JJ	.	16B/JJ	.	.	.
8BB/	6	4G/	.	4G/	.	.	.
8AA/J	.	.	.	.	.	.	.
=6	=6	=6	=6	=6	=6	=6	=6
!	!	!	!	!	!LO:DY:t=pia.	!	!
8GG/L	.	8b/L	p	4dd\	p	4dd\	Sal-
8BB/	6	8g/	.	.	.	.	.
8C/	.	8g/	.	(32ee\KLL	.	(32ee\KLL	.
.	.	.	.	16.cc\)	.	16.cc\)	.
8C#X/J	6 5	8e/J	.	(32b\K	.	(32b\K	.
.	.	.	.	16.a\JJ)	.	16.a\JJ)	.
.	.	.	.	(<8qqg/	.	(8qqg/	.
8D/L	3_	8A/L	.	4f#/)	.	4f#/)	.
8Cn/	.	8d/	.	.	.	.	.
8BB/	6	8d/	.	4g/	.	4g/	-ve
8GG/J	.	8B/J	.	.	.	.	.
=7	=7	=7	=7	=7	=7	=7	=7
4C/	.	8r	.	8r	.	8r	.
.	.	(8cc\L	.	(8ee\L	.	8ee\	Sal-
8D/L	8	8b\)	.	8dd\)	.	8dd\	-ve
8DD/J	7	8a\J	.	8cc\J	.	8cc\	Re-
*	*	*	*	*custos:cc	*	*	*
!	!	!	!	!LO:LB:g=original	!	!	!
.	.	(16qqb/	.	(16qqdd/	.	(16qqdd	.
!LO:TX:t=P:problem=mixed beam	!	!	!	!	!	!	!
8GG/L	4	8a/L)	.	8cc\L)	.	8cc\)	-gi-
8G\	3	8g/J	.	8b\J	.	8b\	-na
8B\	6	[4dd\	f	8r	.	4r	.
8G\J	.	.	.	8g/	f	.	.
*custos:c	*	*	*	*	*	*	*
!LO:LB:g=original	!	!	!	!	!	!	!
=8	=8	=8	=8	=8	=8	=8	=8
8c\L	9	4dd\]	.	[4ee\	.	0r	.
8B\	.	.	.	.	.	.	.
!	!	!	!	!LO:TUP:a:problem=klamra łukowa	!	!	!
8c\	8	2cc\	.	24ee\LL]	.	.	.
.	.	.	.	24ff#\	.	.	.
.	.	.	.	24gg\JJ	.	.	.
!	!	!	!	!LO:TUP:a:problem=klamra łukowa	!	!	!
8A\J	.	.	.	24aa\LL	.	.	.
.	.	.	.	24bb\	.	.	.
.	.	.	.	24ccc\JJ	.	.	.
8B\L	9	.	.	[4dd\	.	.	.
8A\	.	.	.	.	.	.	.
!	!	!	!	!LO:TUP:a:problem=klamra łukowa	!	!	!
8B\	8	[4b/	.	24dd\LL]	.	.	.
.	.	.	.	24ee\	.	.	.
.	.	.	.	24ff#\JJ	.	.	.
!	!	!	!	!LO:TUP:a:problem=klamra łukowa	!	!	!
8G\J	.	.	.	24gg\LL	.	.	.
.	.	.	.	24aa\	.	.	.
.	.	.	.	24bb\JJ	.	.	.
*	*	*custos:b	*	*	*	*	*
!	!	!LO:LB:g=original	!	!	!	!	!
=9	=9	=9	=9	=9	=9	=9	=9
8A\L	9	4b/]	.	[4cc\	.	.	.
8G\	.	.	.	.	.	.	.
!	!	!	!	!LO:TUP:a:problem=klamra łukowa	!	!	!
8F#\	5	[4a/	.	24cc\LL]	.	.	.
.	.	.	.	24dd\	.	.	.
.	.	.	.	24ee\JJ	.	.	.
!	!	!	!	!LO:TUP:a:problem=klamra łukowa	!	!	!
8D\J	.	.	.	24ff#\LL	.	.	.
.	.	.	.	24gg\	.	.	.
.	.	.	.	24aa\JJ	.	.	.
!LO:TX:t=P:problem=mixed beam	!	!	!	!LO:TUP:a:problem=klamra łukowa	!	!	!
8G\L	.	8a/L]	.	24b\LL	.	.	.
.	.	.	.	24cc\	.	.	.
.	.	.	.	24dd\JJ	.	.	.
!	!	!	!	!LO:TUP:a:problem=klamra łukowa	!	!	!
8C\	6 5	8g/	.	24ee\LL	.	.	.
.	.	.	.	24ff#\	.	.	.
.	.	.	.	24gg\JJ	.	.	.
8D\	4	8g/	.	8b/L	.	.	.
!	!	!	!	!LO:TX:a:B:t=t.	!	!	!
8DD/J	3	8f#/J	.	8a/J	.	.	.
=10	=10	=10	=10	=10	=10	=10	=10
!	!	!	!	!LO:TX:t=P:problem=mixed beam	!	!	!
8GG/L	.	8g/L	p	8g/L	p	4dd\	Sal-
8BB/	6	8g/	.	8dd\J	.	.	.
8C/	.	8g/	.	(32ee\KLL	.	(32ee\KLL	.
.	.	.	.	16.cc\)	.	16.cc\)	.
8C#X/J	6 5	8e/J	.	(32b\K	.	(32b\K	.
.	.	.	.	16.a\JJ)	.	16.a\JJ)	.
.	.	.	.	(<8qqg/	.	(8qqg/	.
8D/L	3_	8A/L	.	4f#/)	.	4f#/)	.
8Cn/	.	8d/	.	.	.	.	.
8BB/	6	8d/	.	4g/	.	4g/	-ve
8GG/J	.	8B/J	.	.	.	.	.
!	!	!	!	!	!	!LO:LB:g=original	!
=11	=11	=11	=11	=11	=11	=11	=11
4C/	.	8r	.	8r	.	8r	.
.	.	(8cc\L	.	8ee\L	.	8ee\	Re-
8D/L	4	8b\)	.	8dd\	.	8dd\	-gi-
8DD/J	7 3	8a\J	.	8cc\J	.	8cc\	-na
.	.	(16qqb/	.	(16qqdd/	.	(16qqdd/	.
!LO:TX:t=P:problem=mixed beam	!	!	!	!	!	!	!
8GG/L	4	8a/L)	.	8cc\L)	.	8cc\)	ma-
8G\	3	8g/J	.	8b\J	.	8b\	-ter
8B\	6	8g/L	.	8dd\L	.	8r	.
8G\J	.	8b/J	.	8dd\J	.	8b\	ma-
=12	=12	=12	=12	=12	=12	=12	=12
8F#\L	6	8a/L	.	8dd\L	.	8a\	-ter
8F#\	.	8a/	.	8dd\	.	8dd\	mi-
8D\	.	8a/	.	8dd\	.	8ff#\	-se-
8D\J	.	8f#/J	.	8dd\J	.	8a\	-ri-
8E\L	6\	8g/L	.	8cc#X\L	.	8g/	-cor-
8D\	.	8g/	.	8cc#\	.	4ee\	.
8C#X\	6 5	8g/	.	8ee\	.	.	.
8C#\J	.	8g/J	.	8ee\J	.	8g/	.
=13	=13	=13	=13	=13	=13	=13	=13
4D\	.	4f#/	.	(8ee\L	.	8f#/L	.
.	.	.	.	8dd\J)	.	8a/J	.
8r	.	4r	.	4r	.	[4dd\	.
8F#\	6	.	.	.	.	.	.
!LO:TX:t=P:problem=mixed beam	!	!	!	!	!	!LO:TUP:a	!
8G\L	.	2r	.	2r	.	24dd\LL]	.
.	.	.	.	.	.	24ee\	.
.	.	.	.	.	.	24ff#\JJ	.
!	!	!	!	!	!	!LO:TUP:a:problem=klamra łukowa	!
8G\	6 5	.	.	.	.	24gg\LL	.
.	.	.	.	.	.	24dd\	.
.	.	.	.	.	.	24b\JJ	.
!	!	!	!	!	!	!LO:TX:t=P:global:problem=niejednoznaczny zapis ozdobnika [przyjęto trillo]	!
!	!	!	!	!	!	!LO:TX:a:B:t=t.	!
8A\	4	.	.	.	.	8.cc#X\	.
8AA/J	#3	.	.	.	.	.	.
.	.	.	.	.	.	16dd\	-di-
!	!	!	!	!LO:LB:g=original	!	!LO:LB:g=original	!
=14	=14	=14	=14	=14	=14	=14	=14
8D\L	.	8ff#\L	f	4aa\	f	4dd\	-ae
8F#\	6	8dd\	.	.	.	.	.
8G\	.	8dd\	.	(32bb\KLL	.	4r	.
.	.	.	.	16.gg\)	.	.	.
8G#X\J	6 5	8b\J	.	(32ff#\K	.	.	.
.	.	.	.	16.ee\JJ)	.	.	.
.	.	.	.	(8qqdd/	.	.	.
8A\L	#_	8e/L	.	4cc#X\)	.	2r	.
8Gn\	.	8a/	.	.	.	.	.
8F#\	6	8a/	.	4dd\	.	.	.
8D\J	.	8f#/J	.	.	.	.	.
=15	=15	=15	=15	=15	=15	=15	=15
4G\	.	8r	.	8r	.	0r	.
.	.	8gg\L	.	8bb\L	.	.	.
!LO:TX:t=P:problem=mixed beam	!	!	!	!	!	!	!
8A\L	8 #	8ff#\	.	8aa\	.	.	.
8AA/J	7	8ee\J	.	8gg\J	.	.	.
.	.	(16qqff#/	.	(16qqaa/	.	.	.
!LO:TX:t=P:problem=mixed beam	!	!	!	!	!	!	!
8DD/L	.	8ee\L)	.	8gg\L)	.	.	.
8D\	.	8dd\J	.	8ff#\J	.	.	.
8F#\	6	8d/L	.	8r	.	.	.
8D\J	.	8d/J	.	8aa\	.	.	.
*custos:G	*	*	*	*	*	*	*
!LO:LB:g=original	!	!	!	!	!	!	!
=16	=16	=16	=16	=16	=16	=16	=16
8G\L	3	8d/L	.	[4b\	.	.	.
8F#\	.	8d/	.	.	.	.	.
!	!	!	!	!LO:TUP:a:problem=klamra łukowa	!	!	!
8G\	6	8e/	.	24b\LL]	.	.	.
.	.	.	.	24cc#X\	.	.	.
.	.	.	.	24dd\JJ	.	.	.
!	!	!	!	!LO:TUP:a:problem=klamra łukowa	!	!	!
8E\J	.	8e/J	.	24ee\LL	.	.	.
.	.	.	.	24ff#\	.	.	.
.	.	.	.	24gg\JJ	.	.	.
.	.	.	.	(8qqdd/	.	.	.
8A\L	#	8e/L	.	[4cc#X\)	.	.	.
8G\	.	8e/	.	.	.	.	.
!	!	!	!	!LO:TUP:a:problem=klamra łukowa	!	!	!
8A\	6	8f#/	.	24cc#\LL]	.	.	.
.	.	.	.	24dd\	.	.	.
.	.	.	.	24ee\JJ	.	.	.
!	!	!	!	!LO:TUP:a:problem=klamra łukowa	!	!	!
8F#\J	.	8f#/J	.	24ff#\LL	.	.	.
.	.	.	.	24gg\	.	.	.
.	.	.	.	24aa\JJ	.	.	.
*	*	*custos:f	*	*	*	*	*
!	!	!LO:LB:g=original	!	!	!	!	!
=17	=17	=17	=17	=17	=17	=17	=17
!LO:TX:t=P:problem=mixed beam	!	!	!	!LO:TUP:a:problem=klamra łukowa	!	!	!
8B\L	3	8f#/L	.	24dd\LL	.	2r	.
.	.	.	.	24ee\	.	.	.
.	.	.	.	24ff#\JJ	.	.	.
!	!	!LO:TUP:b:problem=klamra łukowa	!	!LO:TUP:a:problem=klamra łukowa	!	!	!
8G\	6 5	24b/L	.	24gg\LL	.	.	.
.	.	24cc/	.	24aa\	.	.	.
.	.	24dd/JJ	.	24bb\JJ	.	.	.
8A\	4	8dd\L	.	8ff#\L	.	.	.
!	!	!LO:TX:a:B:t=t	!	!LO:TX:a:B:t=t.	!	!	!
8AA/J	#3	8cc#X\J	.	8ee\J	.	.	.
!	!	!LO:TX:t=P:problem=mixed beam	!	!	!	!	!
8D/L	.	8dd\L	.	4dd\	.	4r	.
8C/	.	8d/J	.	.	.	.	.
8BB/	3	[4dd\	p	4r	.	[4dd\	Sal-
8AA/J	.	.	.	.	.	.	.
=18	=18	=18	=18	=18	=18	=18	=18
8GG#X/L	5	2dd\]	.	4r	.	8.dd\L]	.
8GG#/	.	.	.	.	.	.	.
.	.	.	.	.	.	(32ee\LL	.
.	.	.	.	.	.	32ffn\JJJ)	.
8GG#/	6	.	.	[4bb\	p	8ee\L	.
8GG#/J	5	.	.	.	.	8dd\J	.
!LO:TX:t=P:problem=mixed beam	!	!	!	!LO:TX:t=P:problem=mixed beam	!	!	!
8AA/L	n3	8ccn\L	.	8bb\L]	.	(16cc\LL	.
.	.	.	.	.	.	16b\JJ)	.
8AA/	.	8a\J	.	8cc/J	.	8a\	-ve
8A\	.	[4cc\	.	4r	.	[4cc\	Re-
8Gn\J	.	.	.	.	.	.	.
=19	=19	=19	=19	=19	=19	=19	=19
8F#\L	5	2cc\]	.	4r	.	8.cc\L]	.
8F#\	.	.	.	.	.	.	.
.	.	.	.	.	.	(32dd\LL	.
.	.	.	.	.	.	32ee\JJJ)	.
8F#\	6	.	.	[4aa\	.	8dd\	-gi-
8F#\J	5	.	.	.	.	8cc\	-na
!LO:TX:t=P:problem=mixed beam	!	!	!	!LO:TX:t=P:problem=mixed beam	!	!	!
8G\L	.	8b/L	.	8aa\L]	.	(16b\LL	ma-
.	.	.	.	.	.	16a\JJ)	.
8G\	.	8g/J	.	8b/J	.	8g/	-ter
8GG/J	.	4r	.	8r	.	8r	.
8r	.	.	.	8b/	.	8b\	ma-
!	!	!	!	!	!	!LO:LB:g=original	!
=20	=20	=20	=20	=20	=20	=20	=20
8r	.	8r	.	8ee\L	.	8ee\	-ter
8D\L	.	8g/L	.	8ee\	.	8ee\	mi-
8G\	6	8b/	.	8ee\	.	8ee\	-se-
8A\J	.	8cc/J	.	8ee\J	.	8ee\	-ri-
*	*	*	*	*custos:ee	*	*	*
!	!	!	!	!LO:LB:g=original	!	!	!
8B\L	4	8f#/L	.	(8ee\L	.	(8ee\L	-cor-
8B\	3	8f#/	.	8dd\J)	.	8dd\J)	.
8B\	2_	8e/	.	(4cc\	.	(4cc\	.
[8A\J	.	8e/J	.	.	.	.	.
=21	=21	=21	=21	=21	=21	=21	=21
8A\L]	2_	8d#X/L	.	4b/)	.	4b\)	.
[8G\J	.	8e/J	.	.	.	.	.
!	!	!LO:TX:t=P:problem=mixed beam	!	!LO:TX:t=P:problem=mixed beam	!	!	!
8G\L]	2	8f#/L	.	8a/L	.	8a\L	.
16F#\L	3	[8ff#\J	.	[8aa\J	.	[8aa\J	.
16E\JJ	.	.	.	.	.	.	.
!LO:TX:t=P:problem=mixed beam	!	!	!	!	!	!	!
8D#X\L	5	8ff#\L]	.	8aa\L]	.	16aa\LL]	.
.	.	.	.	.	.	16ff#\	.
8E\	3	8ee\J	.	8gg\J	.	(16gg\	.
.	.	.	.	.	.	16ee\JJ)	.
.	.	.	.	8qqgg/	.	(8qqee/	.
!	!	!LO:TX:a:B:t=t.	!	!LO:TX:a:B:t=t.	!	!LO:TX:a:B:t=t.	!
8B\	.	8.dd#X\L	.	8.ff#\L	.	8.dd#X\)	.
8BB/J	.	.	.	.	.	.	.
.	.	16ee\Jk	.	16ee\Jk	.	16ee\	-di-
=22	=22	=22	=22	=22	=22	=22	=22
4EE/	.	4ee\	.	8ee\L	.	4ee\	-ae
.	.	.	.	8b\J	f	.	.
4r	.	8r	.	4.ee\	.	4r	.
.	.	8e/	f	.	.	.	.
4r	.	4.b/	.	.	.	2r	.
.	.	.	.	8dd\	.	.	.
8r	.	.	.	(4cc\	.	.	.
8AA/	.	[8a/	.	.	.	.	.
=23	=23	=23	=23	=23	=23	=23	=23
!	!	!	!	!LO:TX:t=P:problem=mixed beam	!	!	!
4D\	4	8a/L]	.	8b/L)	.	1r	.
.	3	8g/J	.	8bb\J	.	.	.
!	!	!LO:TX:t=P:problem=mixed beam	!	!	!	!	!
8r	.	8f#/L	.	[4aa\	.	.	.
8A\	6 5	(16ff#\L	.	.	.	.	.
.	.	16ee\JJ)	.	.	.	.	.
!LO:TX:t=P:problem=mixed beam	!	!	!	!	!	!	!
.	.	(16qqee/	.	.	.	.	.
8B\L	7 #	8dd#X\L)	.	16aa\LL]	.	.	.
.	.	.	.	16ff#\	.	.	.
8E\	3	(16ee\L	.	16gg\	.	.	.
.	.	16ff#\JJ)	.	16aa\JJ	.	.	.
.	.	(8qqee/	.	8qqgg/	.	.	.
!	!	!LO:TX:a:B:t=t.	!	!LO:TX:a:B:t=t.	!	!	!
8B\	4	4dd#X\)	.	4ff#\	.	.	.
8BB/J	#3	.	.	.	.	.	.
*custos:E	*	*	*	*	*	*custos:g	*
!LO:LB:g=original	!	!LO:LB:g=original	!	!	!	!LO:LB:g=original	!
=24	=24	=24	=24	=24	=24	=24	=24
!	!	!	!	!LO:TX:t=P:problem=mixed beam	!	!	!
8E\L	3	4ee\	.	8ee\L	.	4r	.
(16D\L	.	.	.	(8e/J	p	.	.
16C\JJ)	.	.	.	.	.	.	.
!	!	!	!	!LO:SIC:v:s=8d#L/)	!	!	!
8BB/L	6	4.g/	p	8d/L)	.	4.g\	Sal-
8C/J	.	.	.	8e/J	.	.	.
4.D/	4	.	.	4A/	.	.	.
.	.	(16f#/LL	.	.	.	(16f#\LL	.
.	.	16g/JJ)	.	.	.	16g\JJ)	.
.	3	(16a/LL	.	8f#/L	.	(16a\LL	.
.	.	16b/J)	.	.	.	16b\J)	.
(16E\LL	6	8cc/J	.	(16g/L	.	8cc\J	.
16F#\JJ)	.	.	.	16a/JJ)	.	.	.
=25	=25	=25	=25	=25	=25	=25	=25
.	.	(16qqdd/	.	.	.	(16qqdd/	.
!LO:TX:t=P:problem=mixed beam	!	!	!	!	!	!	!
8G\L	4	8cc\L)	.	4d/	.	8cc\)	.
(16GG/L	3	8b\J	.	.	.	8b\	-ve
16AA/JJ)	.	.	.	.	.	.	.
8BB/L	6	8d/L	.	4.g/	.	8r	.
(16BB/L	.	(16d/L	.	.	.	8g/	Re-
16C/JJ)	.	16e/JJ)	.	.	.	.	.
4.D/	4	4A/	.	.	.	8g/	-gi-
.	.	.	.	(16f#/LL	.	(16f#/LL	-na
.	.	.	.	16g/JJ)	.	16g/JJ)	.
.	3	8f#/L	.	(16a/LL	.	(16a\LL	ma-
.	.	.	.	16b/J)	.	16b\J)	.
(16E\LL	6	(16g/L	.	8cc/J	.	8cc\J	.
16F#\JJ)	.	16a/JJ)	.	.	.	.	.
=26	=26	=26	=26	=26	=26	=26	=26
.	.	.	.	(16qqdd/	.	(16qqdd/	.
!LO:TX:t=P:problem=mixed beam	!	!	!	!	!	!	!
8G\L	4	8d/L	.	8cc\L)	.	8cc\)	.
8G\	3	8g/	.	8b\J	.	8b\	-ter
!	!	!	!	!LO:TX:t=P:problem=mixed beam	!	!	!
8GG/	.	8b/	.	8dd\L	.	8r	.
8BB/J	6	8g/J	.	8d/J	.	8d/	Re-
!	!	!	!	!LO:TX:t=P:problem=mixed beam	!	!	!
8C/L	5 3	8g/L	.	8e/L	.	4e/	-gi-
8C/	.	8g/	.	8e/	.	.	.
8C/	6	8a/	.	8ee\	.	(32ee\KLL	.
.	.	.	.	.	.	16.cc\JJ)	.
8C/J	.	8a/J	.	8e/J	.	(32b\KLL	-na
.	.	.	.	.	.	16.a\JJ)	.
!	!	!	!	!	!	!LO:LB:g=original	!
=27	=27	=27	=27	=27	=27	=27	=27
.	.	.	.	.	.	(8qqg/	.
!	!	!	!	!LO:TX:t=P:problem=mixed beam	!	!	!
8D\L	5 3	8a/L	.	8f#/L	.	4f#/)	ma-
8D\	.	8a/	.	8f#/	.	.	.
8D\	6	8b/	.	8ff#\	.	(32ff#\KLL	.
.	.	.	.	.	.	16.dd\)	.
8D\J	.	8b/J	.	8f#/J	.	(32cc\K	.
.	.	.	.	.	.	16.b\JJ)	.
.	.	.	.	.	.	(8qqa/	.
!	!	!	!	!LO:TX:t=P:problem=mixed beam	!	!	!
8E\L	5 3	8b\L	.	8g/L	.	4g/)	.
8E\	.	8b\	.	8g/	.	.	.
8E\	6	8cc\	.	8gg\	.	(32gg\KLL	.
.	.	.	.	.	.	16.ee\)	.
8E\J	.	8cc\J	.	8g/J	.	(32dd\K	.
.	.	.	.	.	.	16.cc\JJ)	.
!	!	!	!	!LO:TX:t=P:problem=mixed beam	!	!	!
=28	=28	=28	=28	=28	=28	=28	=28
.	.	.	.	.	.	(8qqb/	.
!	!	!	!	!LO:TX:t=P:problem=mixed beam	!	!	!
8F#\L	5	8cc\L	.	8a/L	.	4a\)	.
8F#\	.	8cc\	.	8a/	.	.	.
8F#\	6	8dd\	.	8aa\	.	(32aa\KLL	.
.	.	.	.	.	.	16.ff#\)	.
8F#\J	5	8dd\J	.	8a/J	.	(32ee\K	.
.	.	.	.	.	.	16.dd\JJ)	.
!LO:TX:t=P:problem=mixed beam	!	!LO:TX:t=P:problem=mixed beam	!	!	!	!	!
8G\L	4	8dd\L	.	8cc\L	.	8cc\	.
8G\	3	8dd\	.	8b\	.	8b\	-ter
8G\	.	8gg\	.	8b\	.	8r	.
8BB/J	6	8g/J	.	8dd\J	.	8dd\	mi-
=29	=29	=29	=29	=29	=29	=29	=29
8C/L	.	8g/L	.	8ee\L	.	8ee\	-se-
8C/	.	8g/	.	8ee\	.	8cc\	-ri-
.	.	.	.	.	.	(8qqb/	.
8C#X/	6	8a/	.	8ee\	.	8.a\)	-cor-
8C#/J	5	8a/J	.	8ee\J	.	.	.
.	.	.	.	.	.	16g/	-di-
*	*	*	*	*	*	*custos:f	*
!LO:TX:t=P:problem=mixed beam	!	!	!	!	!	!LO:LB:g=original	!
.	.	.	.	.	.	(8qqg/	.
8D/L	.	8a/L	.	4ff#\	.	4f#/)	-ae
8d\	.	8d/J	.	.	.	.	.
8B\	6	[4dd\	.	8r	.	8r	.
8G\J	.	.	.	8b\	.	8dd\	Re-
=30	=30	=30	=30	=30	=30	=30	=30
*	*	*	*	*2\right	*	*	*
8c\L	9	4dd\]	.	2ee\	.	[4ee\	-gi-
8B\	.	.	.	.	.	.	.
!	!	!	!	!	!	!LO:TUP:a:problem=klamra łukowa	!
8c\	8	2cc\	.	.	.	24ee\LL]	.
.	.	.	.	.	.	24ff#\	.
.	.	.	.	.	.	24gg\JJ	.
!	!	!	!	!	!	!LO:TUP:a:problem=klamra łukowa	!
8A\J	.	.	.	.	.	24aa\LL	na
.	.	.	.	.	.	24bb\	.
.	.	.	.	.	.	24ccc\JJ	.
8B\L	9	.	.	2dd\	.	[4dd\	ma-
8A\	.	.	.	.	.	.	.
!	!	!	!	!	!	!LO:TUP:a:problem=klamra łukowa	!
8B\	8	[4b/	.	.	.	24dd\LL]	.
.	.	.	.	.	.	24ee\	.
.	.	.	.	.	.	24ff#\JJ	.
!	!	!	!	!	!	!LO:TUP:a:problem=klamra łukowa	!
8G\J	.	.	.	.	.	24gg\LL	.
.	.	.	.	.	.	24aa\	.
.	.	.	.	.	.	24bb\JJ	.
*custos:A	*	*	*	*	*	*	*
!LO:LB:g=original	!	!	!	!	!	!	!
=31	=31	=31	=31	=31	=31	=31	=31
8A\L	9	4b/]	.	2cc\	.	[4cc\	.
8G\	.	.	.	.	.	.	.
!	!	!	!	!	!	!LO:TUP:a:problem=klamra łukowa	!
8F#\	5	4a/	.	.	.	24cc\LL]	.
.	.	.	.	.	.	24dd\	.
.	.	.	.	.	.	24ee\JJ	.
!	!	!	!	!	!	!LO:TUP:a:problem=klamra łukowa	!
8D\J	.	.	.	.	.	24ff#\LL	.
.	.	.	.	.	.	24gg\	.
.	.	.	.	.	.	24aa\JJ	.
8G\L	3	8g/L	.	8b\L	.	8b\	-ter
8C\	.	8g/	.	8ee\J	.	8ee\	mi-
.	.	.	.	(16qqdd/	.	(16qqdd/	.
8C\	.	8g/	.	8cc\L)	.	8cc\)	-se-
.	.	.	.	(16qqb/	.	(16qqb/	.
8C\J	.	8g/J	.	8a\J)	.	8a\)	-ri-
!	!	!LO:LB:g=original	!	!	!	!LO:LB:g=original	!
=32	=32	=32	=32	=32	=32	=32	=32
2D;/	.	4g/	.	4g/	.	4g;/	-cor-
!	!	!LO:TX:t=P:problem=fermata above/below	!	!LO:TX:t=P:problem=fermata above/below	!	!LO:TX:a:B:t=t.	!
.	.	4r;;	.	4r;;	.	8.a\	.
.	.	.	.	.	.	16g/	-di-
!LO:TX:t=P:problem=mixed beam	!	!	!	!	!	!	!
8G\L	.	8g/L	.	8g/L	.	4g/	-ae.
8GG/	.	16d/L	.	16d/L	.	.	.
.	.	16B/JJ	.	16B/JJ	.	.	.
8BB/	6	4G/	.	4G/	.	4r	.
8AA/J	.	.	.	.	.	.	.
=33	=33	=33	=33	=33	=33	=33	=33
8GG/L	.	8b/L	f	4dd\	f	00r	.
8BB/	6	8g/	.	.	.	.	.
8C/	.	8g/	.	(32ee\KLL	.	.	.
.	.	.	.	16.cc\)	.	.	.
8C#X/J	6 5	8e/J	.	(32b\K	.	.	.
.	.	.	.	16.a\JJ)	.	.	.
.	.	.	.	(8qqg/	.	.	.
8D/L	3_	8A/L	.	4f#/)	.	.	.
8Cn/	.	8d/	.	.	.	.	.
8BB/	6	8d/	.	4g/	.	.	.
8GG/J	.	8B/J	.	.	.	.	.
=34	=34	=34	=34	=34	=34	=34	=34
4C/	.	8r	.	8r	.	.	.
.	.	(8cc\L	.	(8ee\L	.	.	.
8D/L	8	8b\)	.	8dd\)	.	.	.
8DD/J	7	8a\J	.	8cc\J	.	.	.
.	.	(16qqb/	.	(16qqdd/	.	.	.
!LO:TX:t=P:problem=mixed beam	!	!	!	!	!	!	!
8GG/L	4	8a/L)	.	8cc\L)	.	.	.
8G\	3	8g/J	.	8b\J	.	.	.
8B\	6	[4dd\	.	8r	.	.	.
8G\J	.	.	.	8dd\	.	.	.
=35	=35	=35	=35	=35	=35	=35	=35
8c\L	9	4dd\]	.	[4ee\	.	.	.
8B\	.	.	.	.	.	.	.
!	!	!	!	!LO:TUP:a:problem=klamra łukowa	!	!	!
8c\	8	2cc\	.	24ee\LL]	.	.	.
.	.	.	.	24ff#\	.	.	.
.	.	.	.	24gg\JJ	.	.	.
!	!	!	!	!LO:TUP:a:problem=klamra łukowa	!	!	!
8A\J	.	.	.	24aa\LL	.	.	.
.	.	.	.	24bb\	.	.	.
.	.	.	.	24ccc\JJ	.	.	.
8B\L	9	.	.	[4dd\	.	.	.
8A\	.	.	.	.	.	.	.
!	!	!	!	!LO:TUP:a:problem=klamra łukowa	!	!	!
8B\	8	[4b/	.	24dd\LL]	.	.	.
.	.	.	.	24ee\	.	.	.
.	.	.	.	24ff#\JJ	.	.	.
!	!	!	!	!LO:TUP:a:problem=klamra łukowa	!	!	!
8G\J	.	.	.	24gg\LL	.	.	.
.	.	.	.	24aa\	.	.	.
.	.	.	.	24bb\JJ	.	.	.
!	!	!	!	!LO:TX:t=P:problem=mixed beam	!	!	!
=36	=36	=36	=36	=36	=36	=36	=36
8A\L	9	4b/]	.	[4cc\	.	.	.
8G\	.	.	.	.	.	.	.
!	!	!	!	!LO:TUP:a:problem=klamra łukowa	!	!	!
8F#\	5	4.a/	.	24cc\LL]	.	.	.
.	.	.	.	24dd\	.	.	.
.	.	.	.	24ee\JJ	.	.	.
!	!	!	!	!LO:TUP:a:problem=klamra łukowa	!	!	!
8D\J	.	.	.	24ff#\LL	.	.	.
.	.	.	.	24gg\	.	.	.
.	.	.	.	24aa\JJ	.	.	.
8G\L	3	.	.	8b\L	.	.	.
8BB\	6	8g/L	.	8gg\J	.	.	.
.	.	.	.	(16qqff#/	.	.	.
8C\	6 5	8g/	.	8ee\L)	.	.	.
.	.	.	.	(16qqdd/	.	.	.
8C\J	.	8g/J	.	8cc\J)	.	.	.
=37	=37	=37	=37	=37	=37	=37	=37
!LO:TX:t=P:problem=mixed beam	!	!	!	!	!	!	!
8D\L	4	4g/	.	4b/	.	1r	.
8D\	.	.	.	.	.	.	.
!	!	!LO:TX:a:B:t=t.	!	!LO:TX:a:B:t=t.	!	!	!
8DD/	3	4f#/	.	4a/	.	.	.
8DD/J	.	.	.	.	.	.	.
!LO:TX:t=P:problem=mixed beam	!	!	!	!	!	!	!
8GG/L	.	8g/L	.	8g/L	.	.	.
8G\J	.	16d/L	.	16d/L	.	.	.
.	.	16B/JJ	.	16B/JJ	.	.	.
4GG;/	.	4G;/	.	4G;/	.	.	.
==	==	==	==	==	==	==	==
*-	*-	*-	*-	*-	*-	*-	*-
!!!system-decoration: <s1>[(g1)]<s4>
!!!RDF**kern: > = above
!!!RDF**kern: < = below
!!!RDF**dynam: p = "piano."
!!!RDF**dynam: f = "forte."
!!!ENC: Andrzej Kubiczek
!!!END: 2021-02-07
!!!ENC: Andrzej Kubiczek
!!!END: 2022-01-11
